brandFactory_export/2.Regular/Lista menu_2Regular.svg

<?xml version="1.0" encoding="UTF-8"?>
<svg width="24px" height="24px" viewBox="0 0 24 24" version="1.1" xmlns="http://www.w3.org/2000/svg" xmlns:xlink="http://www.w3.org/1999/xlink">
    <title>2.Regular/Lista menu_2Regular</title>
    <g id="Symbols" stroke="none" stroke-width="1" fill="none" fill-rule="evenodd">
        <g id="2.Regular/Lista-menu_2Regular" fill="#5CB615" fill-rule="nonzero">
            <path d="M4.90084034,7.24537815 C4.37310924,7.24537815 3.94285714,6.8487395 3.94285714,6.35798319 C3.94285714,5.86722689 4.3697479,5.47058824 4.90084034,5.47058824 L22.6655462,5.47058824 C23.1932773,5.47058824 23.6235294,5.86722689 23.6235294,6.35798319 C23.6235294,6.8487395 23.1966387,7.24537815 22.6655462,7.24537815 L4.90084034,7.24537815 Z M1.38487395,5.02689076 C2.14789916,5.02689076 2.76638655,5.62521008 2.76638655,6.36134454 C2.76638655,7.09747899 2.14789916,7.69579832 1.38487395,7.69579832 C0.618487395,7.69243697 0,7.09747899 0,6.36134454 C0,5.62521008 0.618487395,5.02689076 1.38487395,5.02689076 L1.38487395,5.02689076 Z M22.6655462,11.5210084 C23.1932773,11.5210084 23.6235294,11.9176471 23.6235294,12.4084034 C23.6235294,12.8991597 23.1966387,13.2957983 22.6655462,13.2957983 L4.90084034,13.2957983 C4.37310924,13.2957983 3.94285714,12.8991597 3.94285714,12.4084034 C3.94285714,11.9176471 4.3697479,11.5210084 4.90084034,11.5210084 L22.6655462,11.5210084 Z M1.38487395,11.0739496 C2.14789916,11.0739496 2.76638655,11.6722689 2.76638655,12.4084034 C2.76638655,13.1445378 2.14789916,13.7428571 1.38487395,13.7428571 C0.618487395,13.7428571 0,13.1445378 0,12.4084034 C0,11.6722689 0.618487395,11.0739496 1.38487395,11.0739496 Z M22.6655462,17.5714286 C23.1932773,17.5714286 23.6235294,17.9680672 23.6235294,18.4588235 C23.6235294,18.9462185 23.1966387,19.3462185 22.6655462,19.3462185 L4.90084034,19.3462185 C4.37310924,19.3462185 3.94285714,18.9462185 3.94285714,18.4588235 C3.94285714,17.9714286 4.3697479,17.5714286 4.90084034,17.5714286 L22.6655462,17.5714286 Z M1.38487395,17.1243697 C2.14789916,17.1243697 2.76638655,17.7226891 2.76638655,18.4588235 C2.76638655,19.1915966 2.14789916,19.7932773 1.38487395,19.7932773 C0.618487395,19.789916 0,19.1915966 0,18.4588235 C0,17.7193277 0.618487395,17.1243697 1.38487395,17.1243697 Z" id="Lista-menu_2Regular"></path>
        </g>
    </g>
</svg>

<svg width="24" height="24" viewBox="0 0 24 24" xmlns="http://www.w3.org/2000/svg"><path d="M4.9 7.245c-.527 0-.957-.396-.957-.887 0-.49.427-.887.958-.887h17.765c.527 0 .958.396.958.887 0 .49-.427.887-.958.887H4.9zM1.386 5.027c.763 0 1.381.598 1.381 1.334 0 .736-.618 1.335-1.381 1.335C.618 7.692 0 7.097 0 6.36s.618-1.334 1.385-1.334zm21.28 6.494c.528 0 .959.397.959.887 0 .491-.427.888-.958.888H4.9c-.528 0-.958-.397-.958-.888 0-.49.427-.887.958-.887h17.765zm-21.28-.447c.763 0 1.381.598 1.381 1.334 0 .737-.618 1.335-1.381 1.335-.767 0-1.385-.598-1.385-1.335 0-.736.618-1.334 1.385-1.334zm21.28 6.497c.528 0 .959.397.959.888 0 .487-.427.887-.958.887H4.9c-.528 0-.958-.4-.958-.887 0-.488.427-.888.958-.888h17.765zm-21.28-.447c.763 0 1.381.599 1.381 1.335 0 .733-.618 1.334-1.381 1.334C.618 19.79 0 19.192 0 18.46c0-.74.618-1.335 1.385-1.335z" fill="#5CB615" fill-rule="nonzero"/></svg>
